X:1

T:White Calf, The

M:9/8

L:1/8

R:Air

S:Joyce – Old Irish Folk Music and Songs  (1909)

Z:AK/Fiddler’s Companion

N:”Restored here from a very incorrect copy”

K:D

d|AFF FED DFA|B=cB AFA E2d|AFF FED DFA|B=cB E2D D2||

A|FAA ABc d2d|dAG FED E2d|AFF FED DFA|B=cB E2D D2||

 

WHITE CALVES, THE (Na Gamhna Geala). AKA - "The Lovely Calves." Irish, Slow Air (4/4 time). D Dorian (Joyce): C Minor (O'Sullivan/Bunting). Standard tuning. One part (O'Sullivan/Bunting): AB (Joyce). O'Sullivan (1983) thinks there may be a relationship between this song and "Ailliliu Na nGamhna" in Walshe's "Ceol Ar Sinsear" (pg. 88). Source for notated version: the index to the Irish collector Edward Bunting's 1840 collection asserts the melody was noted "at Deel Castle, Ballina in 1792," while his MS copy is marked "from Charles Byrne's singing." Joyce (The Pigot Collection), 1909; No. 721, pg. 359. O'Sullivan/Bunting, 1983; No. 54, pgs. 83-84.

 

WHITE CLOVER. See "Fight About the Fireside."

 


WHITE COCKADE [1], THE (An Cnota Bán). AKA and see "The Duke of Buccleugh's Tune," "The Ranting Highlander/Highlandman," "Fiddler's Morris," "A Highland Lad My Love Was Born,” "The Highland Laddie [3]," "The Lad With the White Cockade," "O, An Ye Were Dead, Guidman,” “The Rose in the Garden” (a Kings County, PEI title), "White Cock Head." Scottish (originally), Irish, English, Canadian, American; Scottish Measure, Reel, March, or Country Dance. USA; New England, New Hampshire, Maine, southwestern Pa., New York, Michigan. Canada, Prince Edward Island. G Major (most versions): C Major (Howe/Accordeon): F Major (Kershaw). Standard tuning. AB (Bayard, Kershaw, O'Neill/1850, Skye): AAB (Linscott): AABB (most versions). The tune in its original form is properly catagorized a Scottish Measure. One of the first printings of the air is in Playford's Apollo's Banquet of 1687 where it was called simply a "Scots tune," and another early title seems to have been "The Duke of Buccleugh's Tune." Bayard (1981) dates the tune to the latter 17th century (apparently due to the Playford publication), but admits it might be older, although Flood (1906) more decisively (though without documentation) identifies it as a popular air and song of 1615‑1630. Linscott (1939) finds a relatively late printing by Herd in 1776, by which time the air was thoroughly established.

***

A cockade was a ribbon in the shape of a rosette used as a decoration on hats, and thus was a convenient vehicle to display the wearer’s loyalties in much the same manner as a button or a bumper sticker nowadays. It was used especially as a uniform decoration and to mark irregular troops in the 18th century and various colors represented different loyalties. A white cockade was associated with Jacobite rebels in 1715 and again for Bonnie Prince Charlie’s uprising in 1745, in both Scotland and Ireland. The Americans, with a high percentage of both Scots-Irish and Irish in their ranks who identified with the earlier rebels, adopted the white cockade as their symbol during the Revolutionary War and when France entered the war they added the black cockade of that country’s troops, forming the black and white “Alliance cockade” (Johnson, Scottish Fiddle Music in the 18th Century, 1984, and others). It is popularly though the title of the tune refers to a these Jacobite symbols. Jacobite associations to it dimmed by the end of the century, allowing the tune to be absorbed (like the Highlander’s kilts) and used as a march in the British army in 1812 where it appears in a military musician's manuscript book of the period (Winstock). Other military citations include it as one of two stirring tunes (along with "St. Patrick's Day in the Morning") played by pipers attached to the Irish Brigade in the service of France which helped to turn the tide of battle against the English troops in the battle of Fontenoy on May 11, 1745 (O’Neill, 1913). Flood (1906) and O’Neill (1913) state it was probably the last appearance in battle of the Irish Piob mor (war pipes or great pipes, which did survive in Scotland) of any mention.

***

The title is from a Jacobite song from the 18th century written by Muiris mac Daibhi mac Gerailt (Maurice FitzDavid FitzGerald) perhaps after, it has been variously suggested, the fashion of wearing white ribboned plumes in men's hats of the time or possibly to the white cockade which Dublin ladies wore in their hair to show their support of the House of Stewart. Breathnach (CRE II) reports that Seán Ó Dálaigh wrote a note to this song stating that it refers not, as many think, to a military cockade but rather to bouquets of ribbons worn by the young women of Munster at weddings and other such occasions early in the 17th century. Donald Mattson (1974) also believes the title “White Cockade” has nothing to do with a military cockade but rather refers to a bouquet. This custom is referred to in a verse Ó Dálaigh attributes to the period poet Muiris Mac Gearailt:

***

A chailín donn deas an chnota bháin,

Do bhuair is mheall mé le h-iomad grá;

Tair-se liom 's ná de/an me/ chrá,

Mar do thug mé greann dod' chnota bán.

***

Oh pretty brown girl of the white cockade,

Who grieved and charmed me with abundance of love;

Come with me and don't torment me,

Because I mocked your white cockade.  [translation by Paul de Grae]

***

Scots poet Robert Burns rewrote the lyrics as “A Highland Lad my Love was Born,” but the tune itself seems to have been more popular than even his song, and it was often used as a vehicle for various songs about love, topography, and drinking (see "The Ranting Highlander," "The Highland Laddie," "Fiddler's Morris"). {As an aside, Burn’s originally specified his lyric be sung to the tune of the song "O, and ye were dead, Guidman,” which was written to the melody of "Watson's Scotch Measure"}. In America, the tune was published by Philadelphia publishers Benjamin and Joseph Carr in Evening Amusement (1796). The melody appears in the music manuscript copybook of Henry Livingston, Jr.  Livingston purchased the estate of Locust Grove, Poughkeepsie, New York, in 1771 at the age of 23. In 1775 he was a Major in the 3rd New York Regiment, which participated in Montgomery’s invasion of Canada in a failed attempt to wrest Montreal from British control. An important land-owner in the Hudson Valley, and a member of the powerful Livingston family, Henry was also a surveyor and real estate speculator, an illustrator and map-maker, and a Justice of the Peace for Dutchess County. He was also a poet and musician, and presumably a dancer, as he was elected a Manager for the New York Assembly’s dancing season of 1774-1775, along with his 3rd cousin, John Jay, later U.S. Chief Justice of Governor of New York. “White Cockade” was still commonly played at Orange County, New York, country dances in the 1930's (Lettie Osborn, New York Folklore Quarterly). The tune is associated with a dance of the same name in New England, and one set appears in Linscott’s Folk Songs of Old New England; Johnson also prints a Scottish contra dance to the tune. Burchenal (1918) gives the tune as commonly played in that region for the contra dance Camptown Hornpipe. It was listed in the repertoire of Maine fiddler Mellie Dunham (the elderly Dunham was Henry Ford's champion fiddler in the late 1920's). The title appears in Henry Robson's list of popular Northumbrian song and dance tunes ("The Northern Minstrel's Budget"), which he published c. 1800. The English novelist Thomas Hardy, himself an accordion player and fiddler, mentions the tune in scene notes to his drama The Dynasts:

***

It is a June Midnight at The Duke & Duchess of  Richmond's. A band
of stringed instruments shows in the background. The room is crowded

with a brilliant assemblage of more than two hundred of the distinguished

people sojourning in the city on account of the war and other reasons, and

of local personages of State and fashion. The ball has opened with 'The

White Cockade.'

***

The author of English Folk-Song and Dance (pg. 144) found the tune in the repertoire of fiddler William Tilbury (who lived at Pitch Place, midway between Chrut and Thursley in Surrey), who, in his young days, used to play the fiddle at village dances. Tilbury learned his repertoire from an uncle, Fiddler Hammond, who died around 1870 and who was the village musician before him. The conclusion was that “The White Cockade” and similar old country dance tunes survived in tradition (at least in southwest Surrey) well into the second half of the 19th century. A jig form of the tune is known as "A Hundred Pipers and A’." The melody is contained in the Joseph Kershaw manuscript. Kershaw was a fiddler who lived in Slackcote, Saddleworth, North West England, in the 19th century, and his manuscript dates from around 1820 onwards.

***

Sources for notated versions: Dennis McClure (Willimantic, Conn.) [Linscott]; Clyde Lloyd (fifer from Indiana County, Pa., 1952), Hiram Horner (fifer from Westmoreland and Fayette Counties, Pa., 1960), Hogg (Pa., 1948), George Strosnider (fiddler from Greene County, Pa., 1930's) [Bayard]; flute and whistle Micho Russell, 1973 (Doolin, Co. Clare) [Breathnach]; Francis MacDonald (b. 1940, Morell Rear, North-East Kings County, Prince Edward Island) [Perlman]; tin whistle player Micho Russell (Doolin, County Clare) [Breathnach]; Aird’s Selections [Henderson]. Adam, 1928; No. 16. Aird (Selections), 1778 (1782?), Vol. 1, No. 1 (appears as "The Ranting Highlandman," a title G. Farquhar Graham thought Aird found more prudent than “The White Cockade” as sentiments from the rising of ’45 were still strong). American Veteran Fifer, 1927; No. 13, pg. 7.  Barnes (English Country Dance Tunes, vol. 2), 2005; pg. 147 (appears as “Yorkshire Square Eight”, the name of a country dance set to the tune). Bayard (Dance to the Fiddle), No. 174A‑D, pgs. 125‑126. Blake (Ye Ancient Song and Fife), 1974; pg. 26. Breathnach (CRÉ II), 1976; No. 115, pg. 63. Brody (Fiddler’s Fakebook), 1983; pg. 291. Burchenal (American Country Dances, vol. 1), 1918; pg. 18 (appears as "Camptown Hornpipe"). Cahusac's Pocket Companion for the Flute, 1795?, vol. 1, pg. 40. Carlin (Gow Collection), 1986; No. 466. Cazden, Jigs, Reels and Squares, Vol. 1, pg. 20. Creighton, 1933; No. 85, pg. 183. DeVille, 1905; No. 73. Emmerson (Rantin' Pipe and Tremblin' String), pg. 124. Ford (Traditional Music in America), 1940; pg. 109. Fraser (The Airs and Melodies Peculiar to the Highlands of Scotland and the Isles), 1816; No. 126. Gow (Vocal Melodies of Scotland), 1822; pg. 35. Gow (Complete Repository), Part 2, 1802; pg. 19. Graham, 1908; pg. 219. Hardie (Caledonian Companion), 1992; pg. 29. Harding Collection (1915) and Harding's Original Collection (1928), No. 18. Henderson (Flowers of Scottish Melody), 1935. Howe (Complete Preceptor for the Accordeon), c. 1843; pg. 6. Howe (School for the Violin), 1851, pg. 33. Hunter (Fiddle Music of Scotland), 1988; No. 313. Huntington, (William Litten's), 1977; pg, 17. Jarman (Old Time Fiddlin' Tunes); No. or pg. 22. JEFDSS, vol. 1, pg. 94 (2nd half). JFSS, vol. IV, pg. 159 (2nd half). Johnson (The Scots Musical Museum), 1787‑1803, vol. 3, No. 272 (apparently the first printing in Scotland). Johnson (Twenty‑Eight Country Dances as Done at the New Boston Fair), Vol. 8, 1988; pg. 10. The Joseph Kershaw Manuscript, 1993; No. 18. Joyce (Ancient Irish Music), 1873, No. 80. Joyce (Old Irish Folk Music and Song), 1909; No. 112. Keller (Giles Gibbs Jr., His Book for the Fife...1777), 1974, pg. 28. Kennedy (Fiddlers Tune Book), vol. 1, 1951; No. 60, pg. 29. Kerr (Merry Melodies), vol. 1; No. 2, pg. 23 & pg. 40. Linscott (Folk Songs of Old New England), 1939; pgs. 117 & 120. MacDonald (The Skye Collection), 1887; pg 170. Mattson & Walz (Old Fort Snelling), 1974; pg. 42. McDonald (The Gesto Collection), 1895; pgs. 6 & 126. McDonald (Highland Vocal Airs), 1784; pg. 33 (Dance No. 5). Miller & Perron (New England Fiddler’s Repertoire), 1983; No. 105. Morrison (Twenty-Four Early American Country Dances, Cotillions & Reels, for the Year 1976), 1976; pg. 41. O'Daly, 1849, vol. 1, pg. 50. O’Farrell (Pocket Companion, vol. III), c. 1808; pgs. 4-5 (with variations). O'Malley, 1919, pg. 41. O'Neill (O’Neill’s Irish Music), 1915/1987; No. 108, pg. 61 (includes variations). O'Neill (Music of Ireland: 1850 Melodies), 1903/1979; No. 1803, pg. 328. Perlman (The Fiddle Music of Prince Edward Island), 1996; pg. 155. Preston, 1796, pg. 127. Raven (English Country Dance Tunes), 1984; pg. 151. Ritson (Scottish Songs), vol. II, pg. 430. Robbins, 1933, No. 82, pg. 26. Ruth (Pioneer Western Folk Tunes), 1948; No. 80, pg. 29. The Scottish Country Dance Book, 1930‑57, No. 5 (tune 11). Shaw (Cowboy Dances), 1943; pg. 391. Smith (Scottish Minstrel), 1820‑24, vol. 1, pg. 21. Stewart-Robertson (The Athole Collection), 1884; pg. 147. Sweet (Fifer’s Delight), 1965/1981; pg. 32. Thompson (Scottish Airs for the Voice), 1805, vol. 4, No. 188. Tolman (Nelson Music Collection), pg. 168. Trim (Thomas Hardy), 1990; No. 6 (appears as "White Cock Head"). White's Excelsior Collection, 1907; pg. 72. Wilson (Companion to the Ballroom), 1840; pgs. 39 & 54. ALcazar Dance Series FR 204, Rodney Miller ‑ "New England Chestnuts 2" (1981). Folkways FA 2381, "The Hammered Dulcimer as played by Chet Parker" (1966). Folkways FTS 31036, Roger Sprung‑ "Grassy Licks." Maggie’s Music MM220, Hesperus – “Celtic Roots.” North Star NS0038, "The Village Green: Dance Music of Old Sturbridge Village." Olympic 6151, The Scottish Festival orchestra‑ "Scottish Traditonal Fiddle Music" (1978). RCA 09026-60916-2, The Chieftains - "An Irish Evening" (1991). Topic TSCD607, Walter & Daisy Bulwer – “English Country Music” (2000. Originally recorded 1962). Transatlantic 337, Dave Swarbrick‑ "Swarbrick." Victor 20537 (78 RPM), Mellie Dunham (Me.), 1926 (appears as 2nd tune of "Medley of Reels").

